X:1
T:Every Hour I Need Thy Blessing
T:Every Hour I Need Thy Blessing
T:Will Lamartine Thompson
T:Elizabeth Johnson Thompson, 1894
T:Public Domain Courtesy of the Cyber Hymnal™
T:Public Domain Courtesy of the Cyber Hymnal™
C:Will Lamartine Thompson
Z:Public Domain
Z:Courtesy of the Cyber Hymnal™
%%score ( 1 2 ) ( 3 4 )
L:1/8
Q:1/4=100
M:9/8
K:Eb
V:1 treble 
V:2 treble 
V:3 bass 
V:4 bass 
V:1
 [B,G]2"^Duet - Soprano & Tenor, or Soprano & Alto" [G,E] | [CA]3- [CA]2 [B,G] [DB]2 [CA] | %2
w: 1.~Ev- ery|hour * I need Thy|
w: 2.~Ev- ery|hour * I need Thy|
w: 3.~Ev- ery|hour * I need Thy|
 [CA]3 [B,G]3 [G,E]2 [G,E] | [B,G]3- [B,G]2 [A,F] [CA]2 [B,G] | [G,E]3- [G,E]2 z [B,G]2 [G,E] | %5
w: bless- ing, Ev- ery|mo- * ment need Thy|care, * Lord, to|
w: bless- ing, Dai- ly|need * Thy won- drous|love, * Love so|
w: bless- ing, Ev- ery|mo- * ment need Thy|care, * Un- til|
 [CA]3- [CA]2 [B,G] [DB]2 [CA] | [CA]3 [B,G]3 [G,E]2 [G,E] | [B,G]3- [B,G]2 [A,F] [CA]2 [B,G] | %8
w: Thee * I come con-|fess- ing, All the|sins * that me en-|
w: ten- * der, so pro-|tect- ing, Com- ing|from * Thy throne a-|
w: Thou * my soul pos-|sess- ing, Shall re-|flect * Thine im- age|
 [G,E]3- [G,E]2 z E2 E | [E-e]3 [Ec]2 E [EA]2 [Ec] | [Ge]3 [GB]3 [=Ec]2 [EG] | %11
w: snare. * Bless the|thoughts that come each mo-|ment, Make them true|
w: bove. * For Thy|lov- ing care and bless-|ing, Make me thank-|
w: there. * Then to|Christ the King of Glo-|ry, He who bought|
 [FA]3- [FA]2 F [DB]2 [DA] | [EG]3- [EG]2 z E2 E | [E-e]3 [Ec]2 E [EA]2 [Ec] | %14
w: and * pure and fair,|Like * to Thine|our great a- tone- ment,|
w: ful * day by day,|By * my walk|and dai- ly liv- ing,|
w: me * with great price,|I * shall sing|the old, old sto- ry,|
 [Ge]3 [GB]3 [G,E]2 [G,E] | [B,G]3- [B,G]2 [B,F] [DA]2 [B,D] | [B,E]6 |] %17
w: Beau- ti- ful be-|yond * com- pare. *||
w: Prais- ing Christ the|Liv- * ing Way. *||
w: Christ my Lord, my|sac- * ri- fice. *||
V:2
 x3 | x9 | x9 | x9 | x9 | x9 | x9 | x9 | x6 E2 E | x5 E x3 | x9 | x5 F x3 | x6 E2 E | x5 E x3 | %14
 x9 | x9 | x6 |] %17
V:3
 [E,B,]2 [E,G,] | C3- C2 B, D2 C | C3 [E,B,]3 G,2 G, | B,3- B,2 A, C2 B, | %4
 G,3- G,2 [E,B,]2 [E,G,] x | C3- C2 B, D2 C | C3 [E,B,]3 G,2 G, | B,3- B,2 A, C2 B, | %8
 G,3- G,2 (E,, G,,)B,, x | [E,C]2 [E,C] A,3 [A,C]3 | [E,B,]2 [E,B,] [E,B,]2 [E,B,] z3 | %11
 [F,C]2 [F,C] [D,B,]3 [B,,B,]3 | [E,B,]2 [E,B,] [E,B,]2 z (E,,G,,)B,, | [E,C]2 [E,C] A,3 [A,C]3 | %14
 [E,B,]2 [E,B,] [E,B,]2 [E,B,] z3 | ([B,,E,]2 [B,,E,] [B,,E,]2) [B,,D,] [B,,F,]2 [B,,A,] | %16
 [E,G,]6 |] %17
V:4
 x3 | (E,,B,,E, E,3) B,,3 | (E,,B,,E,) x2 [B,,E,]3 x | (B,,,E,,B,, B,,3) B,,3 | %4
 (E,,B,,=A,,C,B,,G,,) x3 | (E,,B,,E, E,3) B,,3 | (E,,B,,E,) x2 [B,,E,]3 x | %7
 (B,,,E,,B,, B,,3) B,,3 | (E,,B,,=A,,C,B,,G,,) x3 | x3 A,3 x3 | x9 | x9 | x9 | x3 A,3 x3 | x9 | %15
 x9 | x6 |] %17

